images/3828.svg

<?xml version="1.0" encoding="UTF-8"?>
<svg xmlns="http://www.w3.org/2000/svg" xmlns:xlink="http://www.w3.org/1999/xlink" width="300pt" height="300pt" viewBox="0 0 300 300" version="1.1">
<defs>
<g>
<symbol overflow="visible" id="glyph0-0">
<path style="stroke:none;" d="M 0.796875 2.828125 L 0.796875 -11.28125 L 8.796875 -11.28125 L 8.796875 2.828125 Z M 1.703125 1.9375 L 7.90625 1.9375 L 7.90625 -10.390625 L 1.703125 -10.390625 Z M 1.703125 1.9375 "/>
</symbol>
<symbol overflow="visible" id="glyph0-1">
<path style="stroke:none;" d="M 6.3125 -10.59375 C 5.164062 -10.59375 4.253906 -10.164062 3.578125 -9.3125 C 2.898438 -8.457031 2.5625 -7.296875 2.5625 -5.828125 C 2.5625 -4.359375 2.898438 -3.195312 3.578125 -2.34375 C 4.253906 -1.488281 5.164062 -1.0625 6.3125 -1.0625 C 7.457031 -1.0625 8.363281 -1.488281 9.03125 -2.34375 C 9.695312 -3.195312 10.03125 -4.359375 10.03125 -5.828125 C 10.03125 -7.296875 9.695312 -8.457031 9.03125 -9.3125 C 8.363281 -10.164062 7.457031 -10.59375 6.3125 -10.59375 Z M 6.3125 -11.875 C 7.945312 -11.875 9.253906 -11.328125 10.234375 -10.234375 C 11.210938 -9.140625 11.703125 -7.671875 11.703125 -5.828125 C 11.703125 -3.984375 11.210938 -2.507812 10.234375 -1.40625 C 9.253906 -0.3125 7.945312 0.234375 6.3125 0.234375 C 4.664062 0.234375 3.351562 -0.3125 2.375 -1.40625 C 1.394531 -2.507812 0.90625 -3.984375 0.90625 -5.828125 C 0.90625 -7.671875 1.394531 -9.140625 2.375 -10.234375 C 3.351562 -11.328125 4.664062 -11.875 6.3125 -11.875 Z M 6.3125 -11.875 "/>
</symbol>
</g>
</defs>
<g id="surface41421">
<rect x="0" y="0" width="300" height="300" style="fill:rgb(100%,100%,100%);fill-opacity:1;stroke:none;"/>
<path style="fill:none;stroke-width:1.2;stroke-linecap:butt;stroke-linejoin:miter;stroke:rgb(0%,0%,0%);stroke-opacity:1;stroke-miterlimit:10;" d="M 254.980469 217.304688 L 227.054688 191.167969 "/>
<path style="fill:none;stroke-width:1.2;stroke-linecap:butt;stroke-linejoin:miter;stroke:rgb(0%,0%,0%);stroke-opacity:1;stroke-miterlimit:10;" d="M 227.054688 191.167969 L 235.730469 153.914062 "/>
<path style="fill:none;stroke-width:1.2;stroke-linecap:butt;stroke-linejoin:miter;stroke:rgb(0%,0%,0%);stroke-opacity:1;stroke-miterlimit:10;" d="M 219.160156 185.398438 L 226.097656 155.597656 "/>
<path style="fill:none;stroke-width:1.2;stroke-linecap:butt;stroke-linejoin:miter;stroke:rgb(100%,0%,0%);stroke-opacity:1;stroke-miterlimit:10;" d="M 190.457031 202.28125 L 208.757812 196.722656 "/>
<path style="fill:none;stroke-width:1.2;stroke-linecap:butt;stroke-linejoin:miter;stroke:rgb(0%,0%,0%);stroke-opacity:1;stroke-miterlimit:10;" d="M 208.757812 196.722656 L 227.054688 191.167969 "/>
<path style="fill:none;stroke-width:1.2;stroke-linecap:butt;stroke-linejoin:miter;stroke:rgb(0%,0%,0%);stroke-opacity:1;stroke-miterlimit:10;" d="M 235.730469 153.914062 L 207.808594 127.773438 "/>
<path style="fill:none;stroke-width:1.2;stroke-linecap:butt;stroke-linejoin:miter;stroke:rgb(0%,0%,0%);stroke-opacity:1;stroke-miterlimit:10;" d="M 212.191406 128.792969 L 216.527344 110.167969 "/>
<path style="fill:none;stroke-width:1.2;stroke-linecap:butt;stroke-linejoin:miter;stroke:rgb(100%,0%,0%);stroke-opacity:1;stroke-miterlimit:10;" d="M 216.527344 110.167969 L 220.867188 91.542969 "/>
<path style="fill:none;stroke-width:1.2;stroke-linecap:butt;stroke-linejoin:miter;stroke:rgb(0%,0%,0%);stroke-opacity:1;stroke-miterlimit:10;" d="M 203.425781 126.753906 L 207.761719 108.125 "/>
<path style="fill:none;stroke-width:1.2;stroke-linecap:butt;stroke-linejoin:miter;stroke:rgb(100%,0%,0%);stroke-opacity:1;stroke-miterlimit:10;" d="M 207.761719 108.125 L 212.101562 89.5 "/>
<path style="fill:none;stroke-width:1.2;stroke-linecap:butt;stroke-linejoin:miter;stroke:rgb(0%,0%,0%);stroke-opacity:1;stroke-miterlimit:10;" d="M 207.808594 127.773438 L 171.207031 138.886719 "/>
<path style=" stroke:none;fill-rule:nonzero;fill:rgb(100%,100%,100%);fill-opacity:1;" d="M 210.484375 81.019531 L 223.484375 81.019531 L 223.484375 100.019531 L 210.484375 100.019531 Z M 210.484375 81.019531 "/>
<g style="fill:rgb(100%,0%,0%);fill-opacity:1;">
  <use xlink:href="#glyph0-1" x="210.484375" y="95.871094"/>
</g>
<path style="fill:none;stroke-width:1.2;stroke-linecap:butt;stroke-linejoin:miter;stroke:rgb(0%,0%,0%);stroke-opacity:1;stroke-miterlimit:10;" d="M 171.207031 138.886719 L 143.285156 112.746094 "/>
<path style="fill:none;stroke-width:1.2;stroke-linecap:butt;stroke-linejoin:miter;stroke:rgb(0%,0%,0%);stroke-opacity:1;stroke-miterlimit:10;" d="M 162.265625 142.84375 L 139.925781 121.929688 "/>
<path style="fill:none;stroke-width:1.2;stroke-linecap:butt;stroke-linejoin:miter;stroke:rgb(0%,0%,0%);stroke-opacity:1;stroke-miterlimit:10;" d="M 162.53125 176.140625 L 171.207031 138.886719 "/>
<path style="fill:none;stroke-width:1.2;stroke-linecap:butt;stroke-linejoin:miter;stroke:rgb(0%,0%,0%);stroke-opacity:1;stroke-miterlimit:10;" d="M 143.285156 112.746094 L 106.683594 123.859375 "/>
<path style="fill:none;stroke-width:1.2;stroke-linecap:butt;stroke-linejoin:miter;stroke:rgb(0%,0%,0%);stroke-opacity:1;stroke-miterlimit:10;" d="M 143.285156 112.746094 L 147.621094 94.121094 "/>
<path style="fill:none;stroke-width:1.2;stroke-linecap:butt;stroke-linejoin:miter;stroke:rgb(100%,0%,0%);stroke-opacity:1;stroke-miterlimit:10;" d="M 147.621094 94.121094 L 151.960938 75.492188 "/>
<path style="fill:none;stroke-width:1.2;stroke-linecap:butt;stroke-linejoin:miter;stroke:rgb(0%,0%,0%);stroke-opacity:1;stroke-miterlimit:10;" d="M 106.683594 123.859375 L 98.007812 161.113281 "/>
<path style="fill:none;stroke-width:1.2;stroke-linecap:butt;stroke-linejoin:miter;stroke:rgb(0%,0%,0%);stroke-opacity:1;stroke-miterlimit:10;" d="M 97.050781 125.542969 L 90.109375 155.347656 "/>
<path style="fill:none;stroke-width:1.2;stroke-linecap:butt;stroke-linejoin:miter;stroke:rgb(0%,0%,0%);stroke-opacity:1;stroke-miterlimit:10;" d="M 73.933594 104.097656 L 106.683594 123.859375 "/>
<path style="fill:none;stroke-width:1.2;stroke-linecap:butt;stroke-linejoin:miter;stroke:rgb(0%,0%,0%);stroke-opacity:1;stroke-miterlimit:10;" d="M 98.007812 161.113281 L 125.933594 187.253906 "/>
<path style="fill:none;stroke-width:1.2;stroke-linecap:butt;stroke-linejoin:miter;stroke:rgb(0%,0%,0%);stroke-opacity:1;stroke-miterlimit:10;" d="M 98.007812 161.113281 L 78.953125 162.742188 "/>
<path style="fill:none;stroke-width:1.2;stroke-linecap:butt;stroke-linejoin:miter;stroke:rgb(100%,0%,0%);stroke-opacity:1;stroke-miterlimit:10;" d="M 78.953125 162.742188 L 59.898438 164.375 "/>
<path style="fill:none;stroke-width:1.2;stroke-linecap:butt;stroke-linejoin:miter;stroke:rgb(0%,0%,0%);stroke-opacity:1;stroke-miterlimit:10;" d="M 125.933594 187.253906 L 162.53125 176.140625 "/>
<path style="fill:none;stroke-width:1.2;stroke-linecap:butt;stroke-linejoin:miter;stroke:rgb(0%,0%,0%);stroke-opacity:1;stroke-miterlimit:10;" d="M 126.976562 177.53125 L 156.257812 168.640625 "/>
<path style="fill:none;stroke-width:1.2;stroke-linecap:butt;stroke-linejoin:miter;stroke:rgb(0%,0%,0%);stroke-opacity:1;stroke-miterlimit:10;" d="M 125.933594 187.253906 L 121.59375 205.878906 "/>
<path style="fill:none;stroke-width:1.2;stroke-linecap:butt;stroke-linejoin:miter;stroke:rgb(100%,0%,0%);stroke-opacity:1;stroke-miterlimit:10;" d="M 121.59375 205.878906 L 117.257812 224.507812 "/>
<path style="fill:none;stroke-width:1.2;stroke-linecap:butt;stroke-linejoin:miter;stroke:rgb(0%,0%,0%);stroke-opacity:1;stroke-miterlimit:10;" d="M 162.53125 176.140625 L 176.496094 189.210938 "/>
<path style="fill:none;stroke-width:1.2;stroke-linecap:butt;stroke-linejoin:miter;stroke:rgb(100%,0%,0%);stroke-opacity:1;stroke-miterlimit:10;" d="M 176.496094 189.210938 L 190.457031 202.28125 "/>
<path style=" stroke:none;fill-rule:nonzero;fill:rgb(100%,100%,100%);fill-opacity:1;" d="M 184.457031 192.78125 L 197.457031 192.78125 L 197.457031 211.78125 L 184.457031 211.78125 Z M 184.457031 192.78125 "/>
<g style="fill:rgb(100%,0%,0%);fill-opacity:1;">
  <use xlink:href="#glyph0-1" x="184.457031" y="207.632812"/>
</g>
<path style="fill:none;stroke-width:1.2;stroke-linecap:butt;stroke-linejoin:miter;stroke:rgb(100%,0%,0%);stroke-opacity:1;stroke-miterlimit:10;" d="M 117.257812 224.507812 L 98.957031 230.0625 "/>
<path style="fill:none;stroke-width:1.2;stroke-linecap:butt;stroke-linejoin:miter;stroke:rgb(0%,0%,0%);stroke-opacity:1;stroke-miterlimit:10;" d="M 98.957031 230.0625 L 80.65625 235.621094 "/>
<path style=" stroke:none;fill-rule:nonzero;fill:rgb(100%,100%,100%);fill-opacity:1;" d="M 111.257812 215.007812 L 124.257812 215.007812 L 124.257812 234.007812 L 111.257812 234.007812 Z M 111.257812 215.007812 "/>
<g style="fill:rgb(100%,0%,0%);fill-opacity:1;">
  <use xlink:href="#glyph0-1" x="111.257812" y="229.859375"/>
</g>
<path style="fill:none;stroke-width:1.2;stroke-linecap:butt;stroke-linejoin:miter;stroke:rgb(100%,0%,0%);stroke-opacity:1;stroke-miterlimit:10;" d="M 59.898438 164.375 L 52.457031 146.753906 "/>
<path style="fill:none;stroke-width:1.2;stroke-linecap:butt;stroke-linejoin:miter;stroke:rgb(0%,0%,0%);stroke-opacity:1;stroke-miterlimit:10;" d="M 52.457031 146.753906 L 45.019531 129.136719 "/>
<path style=" stroke:none;fill-rule:nonzero;fill:rgb(100%,100%,100%);fill-opacity:1;" d="M 53.898438 154.875 L 66.898438 154.875 L 66.898438 173.875 L 53.898438 173.875 Z M 53.898438 154.875 "/>
<g style="fill:rgb(100%,0%,0%);fill-opacity:1;">
  <use xlink:href="#glyph0-1" x="53.898438" y="169.726562"/>
</g>
<path style="fill:none;stroke-width:1.2;stroke-linecap:butt;stroke-linejoin:miter;stroke:rgb(0%,0%,0%);stroke-opacity:1;stroke-miterlimit:10;" d="M 45.019531 129.136719 L 73.933594 104.097656 "/>
<path style="fill:none;stroke-width:1.2;stroke-linecap:butt;stroke-linejoin:miter;stroke:rgb(0%,0%,0%);stroke-opacity:1;stroke-miterlimit:10;" d="M 53.800781 133.4375 L 76.933594 113.40625 "/>
<path style="fill:none;stroke-width:1.2;stroke-linecap:butt;stroke-linejoin:miter;stroke:rgb(100%,0%,0%);stroke-opacity:1;stroke-miterlimit:10;" d="M 151.960938 75.492188 L 170.257812 69.9375 "/>
<path style="fill:none;stroke-width:1.2;stroke-linecap:butt;stroke-linejoin:miter;stroke:rgb(0%,0%,0%);stroke-opacity:1;stroke-miterlimit:10;" d="M 170.257812 69.9375 L 188.558594 64.378906 "/>
<path style=" stroke:none;fill-rule:nonzero;fill:rgb(100%,100%,100%);fill-opacity:1;" d="M 145.960938 65.992188 L 158.960938 65.992188 L 158.960938 84.992188 L 145.960938 84.992188 Z M 145.960938 65.992188 "/>
<g style="fill:rgb(100%,0%,0%);fill-opacity:1;">
  <use xlink:href="#glyph0-1" x="145.960938" y="80.84375"/>
</g>
</g>
</svg>

<svg xmlns="http://www.w3.org/2000/svg" xmlns:xlink="http://www.w3.org/1999/xlink" width="300pt" height="300pt" viewBox="0 0 300 300"><defs><symbol overflow="visible"><path d="M.797 2.828v-14.11h8V2.83zm.906-.89h6.203v-12.33H1.703zm0 0"/></symbol><symbol overflow="visible" id="a"><path d="M6.313-10.594c-1.15 0-2.06.43-2.735 1.28-.68.857-1.015 2.017-1.015 3.486 0 1.47.335 2.633 1.015 3.484.676.856 1.586 1.28 2.735 1.28 1.144.002 2.05-.424 2.718-1.28.665-.85 1-2.015 1-3.484 0-1.47-.335-2.63-1-3.484-.667-.852-1.573-1.282-2.717-1.282zm0-1.28c1.632 0 2.94.546 3.92 1.64.978 1.093 1.47 2.562 1.47 4.406 0 1.844-.492 3.32-1.47 4.422-.98 1.093-2.288 1.64-3.92 1.64-1.65 0-2.96-.546-3.938-1.64-.98-1.102-1.47-2.578-1.47-4.422 0-1.844.49-3.313 1.47-4.406.977-1.094 2.29-1.64 3.938-1.64zm0 0"/></symbol></defs><g><path fill="#fff" d="M0 0h300v300H0z"/><path d="M254.98 217.305l-27.925-26.137M227.055 191.168l8.675-37.254M219.16 185.398l6.938-29.8" stroke-width="1.2" stroke="#000" stroke-miterlimit="10" fill="none"/><path d="M190.457 202.28l18.3-5.557" stroke-width="1.2" stroke="#f00" stroke-miterlimit="10" fill="none"/><path d="M208.758 196.723l18.297-5.555M235.73 153.914l-27.92-26.14M212.19 128.793l4.337-18.625" stroke-width="1.2" stroke="#000" stroke-miterlimit="10" fill="none"/><path d="M216.527 110.168l4.34-18.625" stroke-width="1.2" stroke="#f00" stroke-miterlimit="10" fill="none"/><path d="M203.426 126.754l4.336-18.63" stroke-width="1.2" stroke="#000" stroke-miterlimit="10" fill="none"/><path d="M207.762 108.125l4.34-18.625" stroke-width="1.2" stroke="#f00" stroke-miterlimit="10" fill="none"/><path d="M207.81 127.773l-36.603 11.114" stroke-width="1.2" stroke="#000" stroke-miterlimit="10" fill="none"/><path d="M210.484 81.02h13v19h-13zm0 0" fill="#fff"/><use xlink:href="#a" x="210.484" y="95.871" fill="#f00"/><path d="M171.207 138.887l-27.922-26.14M162.266 142.844l-22.34-20.914M162.53 176.14l8.677-37.253M143.285 112.746l-36.6 11.113M143.285 112.746l4.336-18.625" stroke-width="1.2" stroke="#000" stroke-miterlimit="10" fill="none"/><path d="M147.62 94.12l4.34-18.628" stroke-width="1.2" stroke="#f00" stroke-miterlimit="10" fill="none"/><path d="M106.684 123.86l-8.676 37.253M97.05 125.543l-6.94 29.805M73.934 104.098l32.75 19.76M98.008 161.113l27.926 26.14M98.008 161.113l-19.055 1.63" stroke-width="1.2" stroke="#000" stroke-miterlimit="10" fill="none"/><path d="M78.953 162.742l-19.055 1.633" stroke-width="1.2" stroke="#f00" stroke-miterlimit="10" fill="none"/><path d="M125.934 187.254l36.597-11.113M126.977 177.53l29.28-8.89M125.934 187.254l-4.34 18.625" stroke-width="1.2" stroke="#000" stroke-miterlimit="10" fill="none"/><path d="M121.594 205.88l-4.336 18.628" stroke-width="1.2" stroke="#f00" stroke-miterlimit="10" fill="none"/><path d="M162.53 176.14l13.966 13.07" stroke-width="1.2" stroke="#000" stroke-miterlimit="10" fill="none"/><path d="M176.496 189.21l13.96 13.07" stroke-width="1.2" stroke="#f00" stroke-miterlimit="10" fill="none"/><path d="M184.457 192.78h13v19h-13zm0 0" fill="#fff"/><use xlink:href="#a" x="184.457" y="207.633" fill="#f00"/><path d="M117.258 224.508l-18.3 5.554" stroke-width="1.2" stroke="#f00" stroke-miterlimit="10" fill="none"/><path d="M98.957 230.063l-18.3 5.558" stroke-width="1.2" stroke="#000" stroke-miterlimit="10" fill="none"/><path d="M111.258 215.008h13v19h-13zm0 0" fill="#fff"/><use xlink:href="#a" x="111.258" y="229.859" fill="#f00"/><path d="M59.898 164.375l-7.44-17.62" stroke-width="1.2" stroke="#f00" stroke-miterlimit="10" fill="none"/><path d="M52.457 146.754l-7.437-17.617" stroke-width="1.2" stroke="#000" stroke-miterlimit="10" fill="none"/><path d="M53.898 154.875h13v19h-13zm0 0" fill="#fff"/><use xlink:href="#a" x="53.898" y="169.727" fill="#f00"/><path d="M45.02 129.137l28.914-25.04M53.8 133.438l23.134-20.032" stroke-width="1.2" stroke="#000" stroke-miterlimit="10" fill="none"/><path d="M151.96 75.492l18.298-5.555" stroke-width="1.2" stroke="#f00" stroke-miterlimit="10" fill="none"/><path d="M170.258 69.938l18.3-5.56" stroke-width="1.2" stroke="#000" stroke-miterlimit="10" fill="none"/><path d="M145.96 65.992h13v19h-13zm0 0" fill="#fff"/><use xlink:href="#a" x="145.961" y="80.844" fill="#f00"/></g></svg>
